img/services/05.svg

<svg width="70" height="70" viewBox="0 0 70 70" fill="none" xmlns="http://www.w3.org/2000/svg">
<path d="M4.51611 15.8064H19.1935V20.3225H4.51611V15.8064Z" fill="#007A65"/>
<path d="M48.5484 5.64478V10.1609H30.4839V19.1932H44.0323V14.677H59.8387V5.64478H48.5484Z" fill="#007A65"/>
<path d="M64.3548 25.6437V0H25.9677V25.6437L20.3226 34.676V42.9032H17.0529C15.2656 42.9032 13.5123 43.5185 12.1156 44.6352L8.63597 47.4194H0V63.2258H8.63597L12.1168 66.01C13.5123 67.1266 15.2656 67.7419 17.0529 67.7419H20.3226V70H70V34.676L64.3548 25.6437ZM67.4958 34.93L64.3548 38.9674V29.9047L67.4958 34.93ZM62.0968 2.25806V41.8702L55.6466 50.1618L55.046 50.0816C53.279 49.8468 51.5595 49.1987 50.0748 48.2085L45.1613 44.9332L40.2477 48.2097C38.7631 49.1987 37.0435 49.8468 35.2755 50.0827L34.676 50.1629L31.5124 46.0961C31.5768 45.7935 31.6129 45.4819 31.6129 45.1613C31.6129 43.916 30.6002 42.9032 29.3548 42.9032H29.0297L28.2258 41.8702V2.25806H62.0968ZM22.5806 49.6774H27.0968C28.3771 49.6774 29.5276 49.1366 30.3506 48.2785L32.0984 50.5253C28.0847 51.179 24.6818 53.5252 22.5818 56.77V49.6774H22.5806ZM25.9677 38.9674L22.8268 34.93L25.9677 29.9047V38.9674ZM22.5806 38.29L26.1698 42.9032H22.5806V38.29ZM17.0529 65.4839C15.776 65.4839 14.5239 65.0447 13.5258 64.2465L9.42855 60.9677H2.25806V49.6774H9.42855L13.5269 46.3987C14.525 45.6005 15.7771 45.1613 17.0529 45.1613H29.3548C29.3548 46.4066 28.3421 47.4194 27.0968 47.4194H20.9842L19.25 49.1535C18.1842 50.2194 16.7661 50.8064 15.2589 50.8064H13.5484V53.0645H15.2589C17.1319 53.0645 18.9045 52.4142 20.3226 51.2253V65.4839H17.0529ZM67.7419 67.7419H22.5806V64.3548C22.5806 58.4816 26.9703 53.4676 32.7916 52.6908L35.5735 52.3194C37.6803 52.0382 39.7295 51.2671 41.4998 50.0873L45.1613 47.6474L48.8227 50.0884C50.5931 51.2682 52.6423 52.0405 54.749 52.3205L57.531 52.6919C63.3523 53.4676 67.7419 58.4816 67.7419 64.3548V67.7419ZM58.2242 50.5242L67.7419 38.29V56.7689C65.6419 53.524 62.239 51.1779 58.2242 50.5242Z" fill="black"/>
<path d="M51.9355 63.2256H54.1936V65.4837H51.9355V63.2256Z" fill="black"/>
<path d="M60.9678 63.2256H63.2258V65.4837H60.9678V63.2256Z" fill="black"/>
<path d="M56.4517 63.2256H58.7097V65.4837H56.4517V63.2256Z" fill="black"/>
<path d="M47.4194 63.2256H49.6775V65.4837H47.4194V63.2256Z" fill="black"/>
<path d="M3.3871 25.9681H7.20548L8.76581 29.0898C9.1971 29.949 10.0619 30.4842 11.0239 30.4842C12.416 30.4842 13.5484 29.3518 13.5484 27.9597V25.9681H20.3226C22.19 25.9681 23.7097 24.4484 23.7097 22.581V13.5487C23.7097 11.6813 22.19 10.1616 20.3226 10.1616H3.3871C1.51968 10.1616 0 11.6813 0 13.5487V22.581C0 24.4484 1.51968 25.9681 3.3871 25.9681ZM2.25806 13.5487C2.25806 12.9266 2.765 12.4197 3.3871 12.4197H20.3226C20.9447 12.4197 21.4516 12.9266 21.4516 13.5487V22.581C21.4516 23.2031 20.9447 23.71 20.3226 23.71H11.2903V27.9597C11.2903 28.2069 10.8952 28.2995 10.7856 28.0782L8.60097 23.71H3.3871C2.765 23.71 2.25806 23.2031 2.25806 22.581V13.5487Z" fill="black"/>
<path d="M4.51611 14.6768H19.1935V16.9348H4.51611V14.6768Z" fill="black"/>
<path d="M4.51611 19.1936H19.1935V21.4517H4.51611V19.1936Z" fill="black"/>
<path d="M56.4514 37.2575V39.5155C57.0735 39.5155 57.5804 40.0225 57.5804 40.6446C57.5804 41.2667 57.0735 41.7736 56.4514 41.7736C55.4883 41.7736 54.6235 41.2384 54.1933 40.3781C53.7846 39.5596 52.9277 39.0978 52.0256 39.196C51.1156 39.2954 50.3851 39.9333 50.1638 40.8207L50.0046 41.4563C49.9154 41.8108 49.3441 41.8504 49.2075 41.5105L47.7183 37.787C47.3141 36.7788 46.3533 36.1284 45.2683 36.1284C44.0162 36.1284 42.9278 37.0204 42.6817 38.2487L42.0404 41.4541C41.9715 41.7962 41.4228 41.8537 41.2851 41.5331L38.8249 35.792C38.3248 34.6246 37.1811 33.8704 35.912 33.8704C34.1643 33.8704 32.7417 35.2929 32.7417 37.0407V38.3865H34.9998V37.0407C34.9998 36.5371 35.4085 36.1284 35.912 36.1284C36.2767 36.1284 36.6064 36.3452 36.7509 36.6817L39.2111 42.4217C39.6299 43.3994 40.5873 44.0317 41.652 44.0317C42.9131 44.0317 44.0083 43.1341 44.2556 41.8967L44.8969 38.6913C44.9635 38.3617 45.4964 38.3131 45.6217 38.6247L47.1109 42.3471C47.5185 43.3712 48.4951 44.0317 49.597 44.0317C50.8277 44.0317 51.8969 43.1973 52.1949 42.0039L52.2932 41.6121C53.1422 43.1115 54.7127 44.0317 56.4514 44.0317C58.3188 44.0317 59.8385 42.512 59.8385 40.6446C59.8385 38.7771 58.3188 37.2575 56.4514 37.2575Z" fill="black"/>
<path d="M48.5483 4.51514H59.8387V6.7732H48.5483V4.51514Z" fill="black"/>
<path d="M30.4839 9.03198H59.8387V11.29H30.4839V9.03198Z" fill="black"/>
<path d="M35 13.5471H59.8387V15.8052H35V13.5471Z" fill="black"/>
<path d="M30.4839 13.5471H32.742V15.8052H30.4839V13.5471Z" fill="black"/>
<path d="M30.4839 18.064H44.0323V20.322H30.4839V18.064Z" fill="black"/>
<path d="M48.5483 34.9998H59.8387V28.2256H48.5483V34.9998ZM50.8064 30.4837H57.5806V32.7417H50.8064V30.4837Z" fill="black"/>
</svg>

<svg width="70" height="70" fill="none" xmlns="http://www.w3.org/2000/svg"><path d="M4.516 15.806h14.677v4.517H4.517v-4.517zM48.548 5.645v4.516H30.484v9.032h13.548v-4.516H59.84V5.645H48.55z" fill="#007A65"/><path d="M64.355 25.644V0H25.968v25.644l-5.645 9.032v8.227h-3.27a7.94 7.94 0 00-4.937 1.732l-3.48 2.784H0v15.807h8.636l3.48 2.784a7.93 7.93 0 004.937 1.732h3.27V70H70V34.676l-5.645-9.032zm3.14 9.286l-3.14 4.037v-9.062l3.14 5.025zM62.098 2.258V41.87l-6.45 8.292-.601-.08a11.816 11.816 0 01-4.971-1.873l-4.914-3.276-4.913 3.277a11.846 11.846 0 01-4.972 1.873l-.6.08-3.164-4.067c.065-.302.1-.614.1-.935a2.26 2.26 0 00-2.257-2.258h-.325l-.804-1.033V2.258h33.87zM22.58 49.678h4.516c1.28 0 2.43-.541 3.254-1.4l1.747 2.247c-4.013.654-7.416 3-9.516 6.245v-7.093h-.001zm3.387-10.71l-3.141-4.038 3.14-5.025v9.062zm-3.387-.678l3.589 4.613h-3.59V38.29zm-5.528 27.194a5.667 5.667 0 01-3.527-1.237l-4.097-3.28h-7.17v-11.29h7.17l4.098-3.278a5.666 5.666 0 013.526-1.238h12.302a2.26 2.26 0 01-2.258 2.258h-6.113l-1.734 1.735a5.608 5.608 0 01-3.991 1.652h-1.71v2.259h1.71a7.84 7.84 0 005.064-1.84v14.259h-3.27zm50.689 2.258H22.58v-3.387c0-5.873 4.39-10.887 10.21-11.664l2.783-.372a14.111 14.111 0 005.926-2.232l3.661-2.44 3.662 2.441a14.096 14.096 0 005.926 2.233l2.782.37c5.821.777 10.21 5.79 10.21 11.664v3.387zm-9.518-17.218l9.518-12.234v18.479c-2.1-3.245-5.503-5.591-9.518-6.245z" fill="#000"/><path d="M51.935 63.226h2.259v2.258h-2.259v-2.258zm9.033 0h2.258v2.258h-2.258v-2.258zm-4.516 0h2.258v2.258h-2.258v-2.258zm-9.032 0h2.258v2.258h-2.259v-2.258zM3.387 25.968h3.818l1.56 3.122a2.514 2.514 0 002.259 1.394 2.527 2.527 0 002.524-2.524v-1.992h6.775a3.391 3.391 0 003.387-3.387v-9.032a3.391 3.391 0 00-3.387-3.387H3.387A3.391 3.391 0 000 13.549v9.032a3.391 3.391 0 003.387 3.387zm-1.129-12.42a1.13 1.13 0 011.13-1.128h16.935a1.13 1.13 0 011.129 1.129v9.032a1.13 1.13 0 01-1.13 1.129H11.29v4.25c0 .247-.395.34-.504.118L8.6 23.71H3.387a1.13 1.13 0 01-1.129-1.129v-9.032z" fill="#000"/><path d="M4.516 14.677h14.677v2.258H4.517v-2.258zm0 4.517h14.677v2.258H4.517v-2.258zm51.935 18.064v2.258a1.13 1.13 0 011.13 1.129 1.13 1.13 0 01-1.13 1.129 2.51 2.51 0 01-2.258-1.396 2.147 2.147 0 00-2.167-1.182c-.91.1-1.64.737-1.862 1.625l-.16.635c-.089.355-.66.394-.796.054l-1.49-3.723a2.627 2.627 0 00-2.45-1.659c-1.252 0-2.34.892-2.586 2.12l-.642 3.206c-.069.342-.617.4-.755.08l-2.46-5.742a3.166 3.166 0 00-2.913-1.922 3.174 3.174 0 00-3.17 3.17v1.346H35v-1.345a.913.913 0 011.75-.36l2.461 5.74a2.652 2.652 0 002.441 1.61 2.662 2.662 0 002.604-2.134l.64-3.206c.068-.33.6-.378.726-.066l1.489 3.722a2.662 2.662 0 002.486 1.685c1.23 0 2.3-.835 2.598-2.028l.098-.392a4.752 4.752 0 004.158 2.42 3.391 3.391 0 003.388-3.387 3.391 3.391 0 00-3.388-3.388zM48.548 4.515h11.29v2.258h-11.29V4.515zM30.484 9.032h29.355v2.258H30.484V9.032zM35 13.547h24.839v2.258H35v-2.258zm-4.516 0h2.258v2.258h-2.258v-2.258zm0 4.517h13.548v2.258H30.484v-2.258zM48.548 35h11.29v-6.774h-11.29V35zm2.258-4.516h6.775v2.258h-6.775v-2.258z" fill="#000"/></svg>
